theme/icons/tools.svg

<svg fill="none" height="24" stroke="#f4f4f7" stroke-linecap="round" stroke-linejoin="round" stroke-width="2" width="24" xmlns="http://www.w3.org/2000/svg"><path d="m0 0h24v24h-24z" stroke="none"/><path d="m3 21h4l13-13a1.5 1.5 0 0 0 -4-4l-13 13zm11.5-15.5 4 4"/><path d="m12 8-5-5-4 4 5 5m-1-4-1.5 1.5m10.5 2.5 5 5-4 4-5-5m4 1-1.5 1.5"/></svg>

<svg fill="none" height="24" stroke="#f4f4f7" stroke-linecap="round" stroke-linejoin="round" stroke-width="2" width="24" xmlns="http://www.w3.org/2000/svg">
    <path d="M0 0h24v24H0z" stroke="none"/>
    <path d="M3 21h4L20 8a1.5 1.5 0 0 0-4-4L3 17zM14.5 5.5l4 4"/>
    <path d="M12 8 7 3 3 7l5 5M7 8 5.5 9.5M16 12l5 5-4 4-5-5m4 1-1.5 1.5"/>
</svg>
